X:4309
L:1/8
Q:1/4=120
M:2/2
K:G
"^Moderately Quick" G2- GA |:"^*" Bd- de d4 |[M:2/4] BAGA |[M:2/2] B2 G4 GF | ECEG [Ec]B[Ec](C | 
 [DD]6) GA | B d3 (d^c d2) |[M:2/4] BAGA |[M:2/2] [GB]2 G4 [GB]2 |"^**" cBAG FGAF | [DA]6 BA | 
 B [dg]3 [dg]4 |[M:2/4] BAGA |[M:2/2] B2 G4 GF | ECEG cA E2 | !slide![DD]6 B,C | DDFG A2 Bc | 
 d2 [Dd]A F2 |] FE | DEFG AcBA | !slide![B,G]6 [B,G]E :| D2{_B} =B2 AGEG | 
 D !slide!B2 A !slide!B2 [B,D]2- | [B,D]2 !slide!B2 AGED | E c2 E c2 (B2 | c)Bcd cAGc | 
 E c2 E c2 Bc | d2 ge dcBA | B G4 D2- | D2{_B} =B2 AGEG | D !slide!B2 A !slide!B2 [B,D]2- | 
 [B,D]2 !slide!B2 AGED | E c2 E c2 (B2 | c)Bcd cAGc | E c2 E c2 Bc | dege dcBA | G4 || 
"^Substitutions""^*" [B,D]G[B,D]G (_B2 =B2) | BAGA |]"^**" cBAG FG A2 | [Fd]6 BA ||

